X: 7330
T: Cliffs Of Dooneen, The
R: waltz
M: 3/4
K: Dmajor
|:{g/e/f/}e2 {A/}ef a2|{e/}f3 e d2|{g/}B{e/}G- G2 {d/}B2|{G/}A3 {g/}f g2|{g/}a3 g a2|f{g/}A- A2 d2|
{g/e/f/}e2 {A/}ed e2|{g/}f3 {g/}f g2|{a/g/}a3 g a2|f{g/}A- A2 d2|
{g/e/f/}e2 {A/}ed e2|{g/}f2 g{a/}f e2|{g/}d2 e{g/}f a2|{e/}f3 e d2|{g/}B{e/}G- G2 {d/}B2|{G/}A6:|

